Yaru++/actions/16/package-install.svg

<svg height="16" width="16" xmlns="http://www.w3.org/2000/svg"><path d="m5.3261719 0c-1.67759.0195-2.9064963-.04015813-3.9101563.51367188-.50182995.27685999-.89762746.74519812-1.11718748 1.33007812-.21956.58488-.29882812 1.27944-.29882812 2.15625v8c0 .87681.07924812 1.57137.29882812 2.15625.21956002.58488.61535753 1.053218 1.11718748 1.330078 1.00366.55376 2.2325663.494242 3.9101563.513672h.00391 5.3398439.0039c1.67759-.0195 2.904543.04016 3.908203-.513672.50183-.27686.897628-.745198 1.117188-1.330078.2199842-.58488.3007832-1.27944.3007832-2.15625v-8c0-.87681-.079248-1.57136-.298828-2.15625-.21955-.58488-.615358-1.05319813-1.117188-1.33007812-1.00366-.55379-2.232556-.49431188-3.910156-.51367188h-.0039-2.0039064-3.3359375z" fill="#3eb34f"/><g transform="translate(-211.99997 -280)"><path d="m5.3261719 0c-1.67759.0195-2.9064963-.04015813-3.9101563.51367188-.50182995.27685999-.89762746.74519812-1.11718748 1.33007812-.21955999.58488-.29882812 1.27944-.29882812 2.15625v.5c0-.87681.07926812-1.57137.29882812-2.15625.21956001-.58488.6153575-1.0532181 1.11718748-1.3300781 1.00366-.55387003 2.2325663-.4941719 3.9101563-.5136719h.00391 3.3359375 2.0039066.0039c1.6776.01936 2.906496-.0401181 3.910156.5136719.50183.27688.897638.7451981 1.117188 1.3300781.219532.58489.29883 1.27944.29883 2.15625v-.5c0-.87681-.079248-1.57136-.298828-2.15625-.21955-.58488-.615358-1.05319813-1.117188-1.33007812-1.00366-.55379001-2.232556-.49431188-3.910156-.51367188h-.0039-2.0039064-3.3359375z" fill="#fff" opacity=".3" transform="translate(212.00006 280)"/><path d="m222.67398 296c1.67759-.0195 2.90649.0402 3.91015-.51367.50183-.27686.89763-.7452 1.11719-1.33008s.29883-1.27944.29883-2.15625v-.5c0 .87681-.0793 1.57137-.29883 2.15625-.21956.58488-.61536 1.05322-1.11719 1.33008-1.00366.55387-2.23256.49417-3.91015.51367h-.004-3.33594-2.0039-.004c-1.6776-.0194-2.9065.0401-3.91016-.51367-.50183-.27688-.89763-.7452-1.11718-1.33008-.21953-.58489-.29883-1.27944-.29883-2.15625v.5c0 .87681.0793 1.57136.29883 2.15625.21955.58488.61535 1.0532 1.11718 1.33008 1.00366.55379 2.23256.49431 3.91016.51367h.004 2.0039 3.33594z" fill="#010000" opacity=".2"/></g><path d="m31.526937 6.0525325-7.044276 7.0442775-4.214883-4.2158441-1.000674 1.003515 5.216504 5.2155291 8.045897-8.0449487z" fill="#fff" stroke-width=".943137" transform="translate(-17.898305 -2.576271)"/></svg>

<?xml version="1.0" encoding="UTF-8" standalone="no"?>
<svg
   xmlns:dc="http://purl.org/dc/elements/1.1/"
   xmlns:cc="http://creativecommons.org/ns#"
   xmlns:rdf="http://www.w3.org/1999/02/22-rdf-syntax-ns#"
   xmlns:svg="http://www.w3.org/2000/svg"
   xmlns="http://www.w3.org/2000/svg"
   xmlns:sodipodi="http://sodipodi.sourceforge.net/DTD/sodipodi-0.dtd"
   xmlns:inkscape="http://www.inkscape.org/namespaces/inkscape"
   width="16"
   height="16"
   version="1.1"
   id="svg6"
   sodipodi:docname="package-install.svg"
   inkscape:version="0.92.4 (5da689c313, 2019-01-14)">
  <metadata
     id="metadata12">
    <rdf:RDF>
      <cc:Work
         rdf:about="">
        <dc:format>image/svg+xml</dc:format>
        <dc:type
           rdf:resource="http://purl.org/dc/dcmitype/StillImage" />
      </cc:Work>
    </rdf:RDF>
  </metadata>
  <defs
     id="defs10">
    <linearGradient
       gradientUnits="userSpaceOnUse"
       gradientTransform="matrix(.42104 -.10139 .1008 .4235 44.055 -5.0894)"
       y2="31.138"
       y1="2.0691"
       x2="-93.088"
       x1="-86.129"
       id="linearGradient2427">
      <stop
         offset="0"
         style="stop-color:#d7e866"
         id="stop2266" />
      <stop
         offset="1"
         style="stop-color:#8cab2a"
         id="stop2268" />
    </linearGradient>
    <linearGradient
       gradientUnits="userSpaceOnUse"
       gradientTransform="matrix(.41388 0 0 .41629 -1.7222 -1.7776)"
       y2="39.78"
       y1="7.044"
       x2="20.494"
       x1="20.494"
       id="linearGradient2431">
      <stop
         offset="0"
         style="stop-color:#fff"
         id="stop3402" />
      <stop
         offset="1"
         style="stop-color:#fff;stop-opacity:0"
         id="stop3404" />
    </linearGradient>
  </defs>
  <sodipodi:namedview
     pagecolor="#ffffff"
     bordercolor="#666666"
     borderopacity="1"
     objecttolerance="10"
     gridtolerance="10"
     guidetolerance="10"
     inkscape:pageopacity="0"
     inkscape:pageshadow="2"
     inkscape:window-width="1555"
     inkscape:window-height="890"
     id="namedview8"
     showgrid="false"
     inkscape:zoom="14.75"
     inkscape:cx="-6.9491525"
     inkscape:cy="8"
     inkscape:window-x="0"
     inkscape:window-y="27"
     inkscape:window-maximized="0"
     inkscape:current-layer="layer1" />
  <g
     transform="translate(-212.00006,-280)"
     id="g4">
    <path
       style="fill:#3eb34f;fill-opacity:1"
       d="M 5.3261719,0 C 3.6485819,0.0195 2.4196756,-0.04015813 1.4160156,0.51367188 0.91418565,0.79053187 0.51838814,1.25887 0.29882812,1.84375 0.07926812,2.42863 0,3.12319 0,4 v 8 c 0,0.87681 0.07924812,1.57137 0.29882812,2.15625 0.21956002,0.58488 0.61535753,1.053218 1.11718748,1.330078 1.00366,0.55376 2.2325663,0.494242 3.9101563,0.513672 h 0.00391 5.3398439 0.0039 c 1.67759,-0.0195 2.904543,0.04016 3.908203,-0.513672 0.50183,-0.27686 0.897628,-0.745198 1.117188,-1.330078 C 15.919201,13.57137 16,12.87681 16,12 V 4 C 16,3.12319 15.920752,2.42864 15.701172,1.84375 15.481622,1.25887 15.085814,0.79055187 14.583984,0.51367188 13.580324,-0.04011812 12.351428,0.01936 10.673828,0 h -0.0039 -2.0039064 -3.3359375 z"
       transform="translate(212.00006,280)"
       id="path2"
       inkscape:connector-curvature="0"
       sodipodi:nodetypes="ccsssccccccccssccccccc" />
  </g>
  <g
     transform="translate(-211.99997,-280)"
     id="g825">
    <path
       sodipodi:nodetypes="ccsscscccccccccsccccccc"
       inkscape:connector-curvature="0"
       id="path816"
       transform="translate(212.00006,280)"
       d="M 5.3261719,0 C 3.6485819,0.0195 2.4196756,-0.04015813 1.4160156,0.51367188 0.91418565,0.79053187 0.51838814,1.25887 0.29882812,1.84375 0.07926813,2.42863 0,3.12319 0,4 V 4.5 C 0,3.62319 0.07926812,2.92863 0.29882812,2.34375 0.51838813,1.75887 0.91418562,1.2905319 1.4160156,1.0136719 2.4196756,0.45980187 3.6485819,0.5195 5.3261719,0.5 h 0.00391 3.3359375 2.0039066 0.0039 c 1.6776,0.01936 2.906496,-0.0401181 3.910156,0.5136719 C 15.085812,1.2905519 15.48162,1.75887 15.70117,2.34375 15.920702,2.92864 16,3.62319 16,4.5 V 4 C 16,3.12319 15.920752,2.42864 15.701172,1.84375 15.481622,1.25887 15.085814,0.79055187 14.583984,0.51367188 13.580324,-0.04011813 12.351428,0.01936 10.673828,0 h -0.0039 -2.0039064 -3.3359375 z"
       style="opacity:0.3;fill:#ffffff;fill-opacity:1" />
    <path
       sodipodi:nodetypes="ccsscccccccccccsccccccc"
       inkscape:connector-curvature="0"
       style="opacity:0.2;fill:#010000;fill-opacity:1"
       d="m 222.67398,296 c 1.67759,-0.0195 2.90649,0.0402 3.91015,-0.51367 0.50183,-0.27686 0.89763,-0.7452 1.11719,-1.33008 0.21956,-0.58488 0.29883,-1.27944 0.29883,-2.15625 v -0.5 c 0,0.87681 -0.0793,1.57137 -0.29883,2.15625 -0.21956,0.58488 -0.61536,1.05322 -1.11719,1.33008 -1.00366,0.55387 -2.23256,0.49417 -3.91015,0.51367 h -0.004 -3.33594 -2.0039 -0.004 c -1.6776,-0.0194 -2.9065,0.0401 -3.91016,-0.51367 -0.50183,-0.27688 -0.89763,-0.7452 -1.11718,-1.33008 -0.21953,-0.58489 -0.29883,-1.27944 -0.29883,-2.15625 v 0.5 c 0,0.87681 0.0793,1.57136 0.29883,2.15625 0.21955,0.58488 0.61535,1.0532 1.11718,1.33008 1.00366,0.55379 2.23256,0.49431 3.91016,0.51367 h 0.004 2.0039 3.33594 z"
       id="path821" />
  </g>
  <g
     id="layer1"
     transform="translate(-17.898305,-2.5762712)">
    <path
       inkscape:connector-curvature="0"
       d="M 31.526937,6.0525325 24.482661,13.09681 20.267778,8.8809659 19.267104,9.8844809 24.483608,15.10001 32.529505,7.0550613 Z"
       style="color:#000000;font-weight:400;line-height:normal;font-family:sans-serif;font-variant-ligatures:normal;font-variant-position:normal;font-variant-caps:normal;font-variant-numeric:normal;font-variant-alternates:normal;font-feature-settings:normal;text-indent:0;text-align:start;text-decoration:none;text-decoration-line:none;text-decoration-style:solid;text-decoration-color:#000000;text-transform:none;text-orientation:mixed;white-space:normal;shape-padding:0;display:inline;overflow:visible;isolation:auto;mix-blend-mode:normal;fill:#ffffff;fill-opacity:1;stroke-width:0.94313747;marker:none;enable-background:new"
       font-weight="400"
       overflow="visible"
       id="path917-3-6-7-5" />
  </g>
</svg>
